X:205
T:Butter’d Pease TS.205
M:C
L:1/8
Q:1/2=70
S:Thomas Sands’ MS,1810,Lincolnshire
N:In a different hand C. Similar to E.Holmes MS hand.
R:country dance
O:England;Lincolnshire
Z:vmp.Ruairidh Greig, 2011
K:G
c|.Bd-d.B .ce-e.c|.Bd-d.B cAA2|.Bd-d.B ce-e.c|BdAc BG G:|
|:A|(Bc).d2(ef).g2|BcdB cAA2|(Bc).d2(ef).g2|BcAc (BG). “cr. in ms”G:|]

